svgs/sharp-regular/taxi.svg

<svg xmlns="http://www.w3.org/2000/svg" viewBox="0 0 512 512"><!--! Font Awesome Pro 6.4.2 by @fontawesome - https://fontawesome.com License - https://fontawesome.com/license (Commercial License) Copyright 2023 Fonticons, Inc. --><path d="M352 0H160V64H120 102.7L97.2 80.4 54.7 208H48 0v48V384v48 80H48V432H464v80h48V432 384 256 208H464h-6.7L414.8 80.4 409.3 64H392 352V0zm22.7 112l32 96H105.3l32-96H374.7zM48 256H464V384H48V256zm64 96a32 32 0 1 0 0-64 32 32 0 1 0 0 64zm320-32a32 32 0 1 0 -64 0 32 32 0 1 0 64 0z"/></svg>

<svg xmlns="http://www.w3.org/2000/svg" viewBox="0 0 512 512"><!--! Font Awesome Pro 6.6.0 by @fontawesome - https://fontawesome.com License - https://fontawesome.com/license (Commercial License) Copyright 2024 Fonticons, Inc. --><path d="M352 0L160 0l0 64-40 0-17.3 0L97.2 80.4 54.7 208 48 208 0 208l0 48L0 384l0 48 0 80 48 0 0-80 416 0 0 80 48 0 0-80 0-48 0-128 0-48-48 0-6.7 0L414.8 80.4 409.3 64 392 64l-40 0 0-64zm22.7 112l32 96-301.4 0 32-96 237.4 0zM48 256l416 0 0 128L48 384l0-128zm64 96a32 32 0 1 0 0-64 32 32 0 1 0 0 64zm320-32a32 32 0 1 0 -64 0 32 32 0 1 0 64 0z"/></svg>
